src/img/offer/wallet.svg

<svg width="88" height="88" viewBox="0 0 88 88" fill="none" xmlns="http://www.w3.org/2000/svg">
<path d="M76 53.107H62.4626C57.492 53.1039 53.463 49.0781 53.46 44.1074C53.46 39.1368 57.492 35.111 62.4626 35.1079H76" stroke="#3029D9" stroke-width="5" stroke-linecap="round" stroke-linejoin="round"/>
<path d="M63.9941 43.9014H62.9518" stroke="#3029D9" stroke-width="5" stroke-linecap="round" stroke-linejoin="round"/>
<path fill-rule="evenodd" clip-rule="evenodd" d="M29.548 15H58.4514C68.1427 15 75.9994 22.8567 75.9994 32.548V56.5478C75.9994 66.2391 68.1427 74.0958 58.4514 74.0958H29.548C19.8567 74.0958 12 66.2391 12 56.5478V32.548C12 22.8567 19.8567 15 29.548 15Z" stroke="#3029D9" stroke-width="5" stroke-linecap="round" stroke-linejoin="round"/>
<path opacity="0.4" d="M27.1671 30.1757H45.221" stroke="#5975FF" stroke-width="5" stroke-linecap="round" stroke-linejoin="round"/>
</svg>

<svg width="88" height="88" fill="none" xmlns="http://www.w3.org/2000/svg"><path d="M76 53.107H62.463c-4.971-.003-9-4.029-9.003-9 0-4.97 4.032-8.996 9.003-9H76m-12.006 8.794h-1.042" stroke="#3029D9" stroke-width="5" stroke-linecap="round" stroke-linejoin="round"/><path clip-rule="evenodd" d="M29.548 15h28.903C68.143 15 76 22.857 76 32.548v24c0 9.691-7.856 17.548-17.548 17.548H29.548C19.857 74.096 12 66.239 12 56.548v-24C12 22.857 19.857 15 29.548 15z" stroke="#3029D9" stroke-width="5" stroke-linecap="round" stroke-linejoin="round"/><path opacity=".4" d="M27.167 30.176h18.054" stroke="#5975FF" stroke-width="5" stroke-linecap="round" stroke-linejoin="round"/></svg>
